X:151
T:Polska efter C A Lindblom
R:sl\"angpolska
A:\"Osterg\"otland
B:SvL \"Ogl 296
Z:id:hn-sp-151
M:3/4
L:1/16
K:D
ABAG F2A2 d4 | fgfe d2f2 a4 | gagf efed cdcB | ABcd efed c2B2 |
ABAG F2A2 d4 | fgfe d2f2 a4 | gagf efed cdcB | ABcd e4 d4 :|
|: e2e2 c2ec Acec | A2a2 a^geg b2a2 | e2e2 c2ec Acec |
A2a2 a^geg b2a2 | a3f d2c2 d2f2 | efed B6 B2 |
A3A g2f2 e2d2 | cdef e4 d4 :|

